X:1
T:Standin In The Need of Prayer
T:Don't you grieve after me
T:Copyright 1881 by The Riverside Press
T:Rodeheaver's Plantation Melodies
T:Rodeheaver's Plantation Melodies
Z:Rodeheaver's Plantation Melodies
%%score [ 1 2 3 4 ]
L:1/8
Q:1/4=70
M:2/4
K:G
V:1 treble nm="Soprano" snm="S."
V:2 treble nm="Alto" snm="A."
V:3 bass nm="Tenor" snm="T."
V:4 bass nm="Bass" snm="B."
V:1
 D/G/ | G/G/G/G/ G/D/G/A/ | B/BB/ AD/G/ | A/A/A/A/ A/D/A/B/ | c/cd/ BG/B/ | d/d/d/d/ d/B/d/d/ | %6
w: Oh- *|who is that a co- ming? * *|||||
 e/ee/ dB/>d/ | d/BG/4G/4 c/AF/ | G3 |] %9
w: |||
V:2
 z | z2 z B,/C/ | D/DD/ DD | F/F/F/F/ F/D/F/G/ | A/AB/ GG | B/B/B/B/ B/G/B/B/ | c/cc/ BB/>B/ | %7
w: |Don't you|grieve af- ter me. Oh|who is that a co- ming? Don't you|grieve af- ter me. Oh|who is that a co- ming? Don't you|grieve af- ter me. Lord I|
 B/GG/4G/4 A/FE/ | E3 |] %9
w: don't want you to grieve af- ter||
V:3
 z | z2 z G,/G,/ | G,/G,G,/ F,D | D/D/D/D/ D/D/D/D/ | D/DD/ DB,/D/ | D/D/D/D/ D/D/D/D/ | %6
 C/CC/ DD/>D/ | D/DD/4D/4 D/DC/ | B,3 |] %9
V:4
 z | z2 z G,/G,/ | G,/G,G,/ D,D, | D,/D,/D,/D,/ D,/D,/D,/D,/ | D,/D,D,/ G,G, | %5
 G,/G,/G,/G,/ G,/G,/G,/G,/ | C,/C,C,/ G,G,/>G,/ | G,/G,G,/4G,/4 D,/D,D,/ | G,3 |] %9

